X:1
T:Si mon amour
T:Wauquel
T:Source : Livre X de 28 chansons nouvelles à 4 parties---Paris---P.Attaingnant---1541. Editor : André Vierendeels (24/05/18) Notes : Original clefs : G2, C2, C3, C4 Original note values have been halved Editorial accidentals above the staff
T:Si mon amour
T:©
T:©
C:Wauquel
Z:©
%%score [ 1 2 [ 3 4 ] ]
L:1/8
Q:1/4=120
M:2/2
K:C
V:1 treble nm="Soprano" snm="S"
V:2 treble nm="Alto" snm="A"
V:3 treble-8 nm="Tenor 1" snm="T 1"
V:4 treble-8 nm="Tenor 2" snm="T 2"
V:1
 c4 c4- | c2 BA B2 B2 | c2 c2 cBcd | e2 d2 f2 e2- | e2 dc B4 | z2 c2 c2 B2 | c2 GA BcdB | %7
w: Si mon|_ _ _ _ a-|mour ne vous _ _ _|_ vient à play-|* * * sir,|met- tant pour|vous le _ _ _ _ _|
 cd e2 d2 c2- | c2 B2 c4 | c4 B2 B2 | B4 z2 G2 | G4 z2 G2 | A2 B2 c4- | c2 B2 c4- | c4 z2 c2 | %15
w: _ _ mien corps et|_ a- voir,|dic- tes: a-|my, a-|my, ces-|sez vo- stre|_ deb- voir,|_ de|
 B2 A2 G2 C2 | CDEF G3 A | Bcde f2 f2- | f2 e3 d c2- | c2 B2 c4 | z2 c2 B2 A2 | G2 C2 CDEF | %22
w: trop ay- mer ne|vient _ _ _ _ _|_ _ _ _ _ que|_ des- * *|* play- sir,|de trop ay-|mer ne vient _ _ _|
 G3 A Bcde | f2 f4 e2- | ed c4 B2 | c8 |] %26
w: _ _ _ _ _ _|* que des-|* * * play-|sir.|
V:2
 G8 | A4 G4 | E2 G2 G4- | G2 G2 A3 G/F/ | E2 F2 G4 | z2 G2 A2 G2 | G2 G4 G2 | C2 A4 F2 | G4 G4 | %9
w: Si|mon a-|mour ne vous|_ vient à _ _|_ play- sir,|met- tant pour|vous le mien|corps et a-|voir, dic-|
 E4 z2 G2 | G8 | z2 D2 DCDE | F2 G2 E2 A2 | G2 F2 G2 G2 | A2 A2 G2 F2 | G2 C2 CDEF | G3 F E2 E2 | %17
w: tes: a-|my,|a- my _ _ _|_ _ _ ces-|sez vo- stre deb-|voir, de trop ay-|mer ne vient _ _ _|_ que des- play-|
 D4 z2 A2 | c2 c2 G2 A2 | G2 G4 E2 | F4 G2 C2 | CDEF G3 F | E2 E2 D4 | z2 A2 c2 c2 | G2 A2 G4 | %25
w: sir, ne|vient que des- play-|sir, de trop|ay- mer ne|vient _ _ _ _ que|des- play- sir,|ne vient que|des- * play-|
 E8 |] %26
w: sir.|
V:3
 e8 | f4 d4 | c2 e2 edef | g2 g2 c4 | c4 d4 | z2 e2 f2 d2 | e3 d/c/ B2 g2 | e2 e2 fedc | d2 d2 c4 | %9
w: Si|mon a-|mour ne vous _ _ _|_ vient à|play- sir,|met- tant pour|vous _ _ _ le|mien corps et _ _ _|_ a- voir,|
 z4 d4 | B2 e2 e4 | z2 B2 B4 | z2 d2 cBcd | e2 f2 f2 e2 | f4 z2 c2 | d2 f2 e4 | c2 cd ef g2 | %17
w: dic-|tes: a- my,|a- my,|ces- sez _ _ _|_ vo- stre deb-|voir, de|trop ay- mer|ne vient _ _ _ _|
 GABc d2 c2- | cdef ge f2 | d4 c4 | z2 c2 d2 f2 | e4 c2 cd | ef g2 GABc | d2 c3 def | ge f2 d4 | %25
w: que _ _ _ _ des-||play- sir,|de trop ay-|mer ne vient _|_ _ _ que _ _ _|_ des- * * *|* * * play-|
 c8 |] %26
w: sir.|
V:4
 c8 | F4 G4 | C2 c2 c4- | c2 B2 A4 | A4 G4 | z2 c2 F2 G2 | CDEF G2 G2 | A2 A2 F2 A2 | G4 z4 | %9
w: Si|mon a-|mour ne vous|_ vient à|play- sir,|met- tant pour|vous _ _ _ _ le|mien corps et a-|voir,|
 c4 G4 | z2 E2 E4 | z2 G2 G4 | z2 G2 A3 B | c2 d2 c2 c2 | F4 z2 A2 | G2 F2 c4 | z2 C2 CDEF | %17
w: dic- tes:|a- my,|a- my,|ces- sez _|_ vo- stre deb-|voir, de|trop ay- mer|ne vient _ _ _|
 G2 D3 EFG | AB c4 F2 | G4 C4 | z2 A2 G2 F2 | c4 z2 C2 | CDEF G2 D2- | DEFG AB c2- | c2 F2 G4 | %25
w: _ que _ _ _|_ _ _ des-|play- sir,|de trop ay-|mer ne|vient _ _ _ _ que|_ _ _ _ _ _ _|* des- play-|
 C8 |] %26
w: sir.|

